svg/development/department_line.svg

<?xml version="1.0" encoding="UTF-8"?>
<svg width="24px" height="24px" viewBox="0 0 24 24" version="1.1" xmlns="http://www.w3.org/2000/svg" xmlns:xlink="http://www.w3.org/1999/xlink">
    <title>group_line</title>
    <g id="页面-1" stroke="none" stroke-width="1" fill="none" fill-rule="evenodd">
        <g id="Development" transform="translate(-768.000000, 0.000000)">
            <g id="group_line" transform="translate(768.000000, 0.000000)">
                 <path d="M24,0 L24,24 L0,24 L0,0 L24,0 Z M12.5934901,23.257841 L12.5819402,23.2595131 L12.5108777,23.2950439 L12.4918791,23.2987469 L12.4918791,23.2987469 L12.4767152,23.2950439 L12.4056548,23.2595131 C12.3958229,23.2563662 12.3870493,23.2590235 12.3821421,23.2649074 L12.3780323,23.275831 L12.360941,23.7031097 L12.3658947,23.7234994 L12.3769048,23.7357139 L12.4804777,23.8096931 L12.4953491,23.8136134 L12.4953491,23.8136134 L12.5071152,23.8096931 L12.6106902,23.7357139 L12.6232938,23.7196733 L12.6232938,23.7196733 L12.6266527,23.7031097 L12.609561,23.275831 C12.6075724,23.2657013 12.6010112,23.2592993 12.5934901,23.257841 L12.5934901,23.257841 Z M12.8583906,23.1452862 L12.8445485,23.1473072 L12.6598443,23.2396597 L12.6498822,23.2499052 L12.6498822,23.2499052 L12.6471943,23.2611114 L12.6650943,23.6906389 L12.6699349,23.7034178 L12.6699349,23.7034178 L12.678386,23.7104931 L12.8793402,23.8032389 C12.8914285,23.8068999 12.9022333,23.8029875 12.9078286,23.7952264 L12.9118235,23.7811639 L12.8776777,23.1665331 C12.8752882,23.1545897 12.8674102,23.1470016 12.8583906,23.1452862 L12.8583906,23.1452862 Z M12.1430473,23.1473072 C12.1332178,23.1423925 12.1221763,23.1452606 12.1156365,23.1525954 L12.1099173,23.1665331 L12.0757714,23.7811639 C12.0751323,23.7926639 12.0828099,23.8018602 12.0926481,23.8045676 L12.108256,23.8032389 L12.3092106,23.7104931 L12.3186497,23.7024347 L12.3186497,23.7024347 L12.3225043,23.6906389 L12.340401,23.2611114 L12.337245,23.2485176 L12.337245,23.2485176 L12.3277531,23.2396597 L12.1430473,23.1473072 Z" id="MingCute" fill-rule="nonzero"></path>
                <path d="M15,6 C15,7.30622 14.1652,8.41746 13,8.82929 L13,11 L16,11 C17.6569,11 19,12.3431 19,14 L19,15.1707 C20.1652,15.5825 21,16.6938 21,18 C21,19.6569 19.6569,21 18,21 C16.3431,21 15,19.6569 15,18 C15,16.6938 15.8348,15.5825 17,15.1707 L17,14 C17,13.4477 16.5523,13 16,13 L8,13 C7.44772,13 7,13.4477 7,14 L7,15.1707 C8.16519,15.5825 9,16.6938 9,18 C9,19.6569 7.65685,21 6,21 C4.34315,21 3,19.6569 3,18 C3,16.6938 3.83481,15.5825 5,15.1707 L5,14 C5,12.3431 6.34315,11 8,11 L11,11 L11,8.82929 C9.83481,8.41746 9,7.30622 9,6 C9,4.34315 10.3431,3 12,3 C13.6569,3 15,4.34315 15,6 Z M12,5 C11.4477,5 11,5.44772 11,6 C11,6.55228 11.4477,7 12,7 C12.5523,7 13,6.55228 13,6 C13,5.44772 12.5523,5 12,5 Z M6,17 C5.44772,17 5,17.4477 5,18 C5,18.5523 5.44772,19 6,19 C6.55228,19 7,18.5523 7,18 C7,17.4477 6.55228,17 6,17 Z M18,17 C17.4477,17 17,17.4477 17,18 C17,18.5523 17.4477,19 18,19 C18.5523,19 19,18.5523 19,18 C19,17.4477 18.5523,17 18,17 Z" id="形状" fill="#09244B"></path>
            </g>
        </g>
    </g>
</svg>

<svg xmlns="http://www.w3.org/2000/svg" width="24" height="24"><g fill="none" fill-rule="evenodd"><path d="M24 0v24H0V0h24ZM12.593 23.258l-.011.002-.071.035-.02.004-.014-.004-.071-.035c-.01-.004-.019-.001-.024.005l-.004.01-.017.428.005.02.01.013.104.074.015.004.012-.004.104-.074.012-.016.004-.017-.017-.427c-.002-.01-.009-.017-.017-.018Zm.265-.113-.013.002-.185.093-.01.01-.003.011.018.43.005.012.008.007.201.093c.012.004.023 0 .029-.008l.004-.014-.034-.614c-.003-.012-.01-.02-.02-.022Zm-.715.002a.023.023 0 0 0-.027.006l-.006.014-.034.614c0 .012.007.02.017.024l.015-.002.201-.093.01-.008.004-.011.017-.43-.003-.012-.01-.01-.184-.092Z"/><path fill="#09244B" d="M15 6a3.001 3.001 0 0 1-2 2.83V11h3a3 3 0 0 1 3 3v1.17a3.001 3.001 0 1 1-2 0V14a1 1 0 0 0-1-1H8a1 1 0 0 0-1 1v1.17a3.001 3.001 0 1 1-2 0V14a3 3 0 0 1 3-3h3V8.83A3.001 3.001 0 1 1 15 6Zm-3-1a1 1 0 1 0 0 2 1 1 0 0 0 0-2ZM6 17a1 1 0 1 0 0 2 1 1 0 0 0 0-2Zm12 0a1 1 0 1 0 0 2 1 1 0 0 0 0-2Z"/></g></svg>
